!!!!SEGMENT: pl-kk--kk-i-3--007-002_anonim--officium-secundum-kirie.krn
!!!cenid: 15xx:590
!!!COM: Anonim
!!!COM-rismid: pe30004985
!!!CDT:
!!!CNT:
!!!OPR: Officium Secundum
!!!OTL: Kirie
!!!OMV: 002
!!!PDT:
!!!AGN:
!!!SMS-siglum: PL-Kk
!!!SMS-shelfmark: Kk.I.3
!!!SMS-shelfwork: 007-002 M
!!!SMS-variant:
!!!SMS-altvar:
!!!NIFC-rismid: 1001145509
!!!URL-scan: http://repozytorium.nifc.pl/skany/pl-kk-nut--i-3
!!!ONB-nifc: UWAGA: Discantus (s. 29v-30r, skan 0032), Tenor (s. 22r-23v, skan 0194-195), Bassus (s. 27v-27r, skan 0330)
!!!key: F
**kern	**text	**kern	**text	**kern	**text
*part3	*part3	*part2	*part2	*part1	*part1
*staff3	*staff3	*staff2	*staff2	*staff1	*staff1
*I"Bassus	*	*I"Tenor	*	*I"Discantus	*
*I'B	*	*I'T	*	*I'S	*
*Ibass	*	*Itenor	*	*Ivox	*
*ICvox	*	*ICvox	*	*ICvox	*
*clefF4	*	*clefC4	*	*clefC3	*
*k[b-]	*	*k[b-]	*	*k[b-]	*
*F:	*	*F:	*	*F:	*
*M2/1	*	*M2/1	*	*M2/1	*
=1-	=1-	=1-	=1-	=1-	=1-
1F	Ki-	1F	Kÿ-	1c	ki-
1BB-	-ri-	1D	-ri-	1d	-ri-
=2-	=2-	=2-	=2-	=2-	=2-
*lig	*	*	*	*	*
1D	-e	1F	-e	2d/	-e
.	.	.	.	1f	.
1C	.	1G	.	.	.
*	*	*	*	*2\right	*
.	.	.	.	2e\	.
*Xlig	*	*	*	*	*
=3-	=3-	=3-	=3-	=3-	=3-
2FF/	.	1A	.	1f	.
1F	.	.	.	.	.
.	.	1B-	.	2d/	.
2E/	.	.	.	2e/	.
=4-	=4-	=4-	=4-	=4-	=4-
1F	.	1A	.	0c	.
1C	.	1G	.	.	.
=5-	=5-	=5-	=5-	=5-	=5-
1D	.	1F	le-	1A	.
1BB-	.	1D	.	1d	e-
=6-	=6-	=6-	=6-	=6-	=6-
1C	ley-	1E	-y-	1c	-lei-
!	!	!	!	!LO:SIC:v:t=custos f	!
!LO:SIC:v:t=custos F	!	!LO:TX:t=P:problem: podwójna kreska pseudotaktowa	!	!	!
1FF;>	-ӡon	1F	-ſon	1c;;	-ſon
=7||-	=7||-	=7||-	=7||-	=7||-	=7||-
!LO:LB:g=original	!	!	!	!LO:LB:g=original	!
1F	Cri-	1F	Chri-	1f	Chri-
2C/	.	1c	.	2e\	.
*2\right	*	*	*	*	*
2F\	.	.	.	2f\	.
=8-	=8-	=8-	=8-	=8-	=8-
*	*	*lig	*	*	*
2E\	-ste	1c	-ſte	2g\	.
2A\	.	.	.	2f\	.
1G	.	1B-	.	1g	.
*	*	*Xlig	*	*	*
=9-	=9-	=9-	=9-	=9-	=9-
2A\	.	1A	.	2e/	.
2F\	.	.	.	2f\	ſte
1G	.	1B-	.	2d/	.
.	.	.	.	1g\	.
=10-	=10-	=10-	=10-	=10-	=10-
1A	.	1c	.	.	.
.	.	.	.	2f\	.
!	!	!LO:SIC:v:t=custos c	!	!	!
1G	.	1d	.	1g	.
=11-	=11-	=11-	=11-	=11-	=11-
*	*	*lig	*	*	*
!	!	!LO:LB:g=original	!	!	!
1C	.	1c	.	1e	.
1D	.	1B-	.	1f	e-
*	*	*Xlig	*	*	*
=12-	=12-	=12-	=12-	=12-	=12-
1BB-	.	1B-	.	1d	-le-
1F	.	1A	.	2c/	-ij-
.	.	.	.	1f\	-ſon
=13-	=13-	=13-	=13-	=13-	=13-
!LO:SIC:v:t=custos D	!	!	!	!	!
1C	.	1G	.	.	.
!	!	!	!	!LO:SIC:v:t=custos d	!
.	.	.	.	2e/	.
*clefF3	*	*	*	*	*
!LO:LB:g=original	!	!	!	!LO:LB:g=original	!
1D	.	1F	.	0d	.
=14-	=14-	=14-	=14-	=14-	=14-
1BB-	.	1D	le-	.	.
1C	ley-	1E	-y-	1c	.
=15-	=15-	=15-	=15-	=15-	=15-
!	!	!LO:TX:t=P:problem: podwójna kreska pseudotaktowa	!	!	!
1F;;	-ӡon	1F	-ſon	1c;;	.
=16||-	=16||-	=16||-	=16||-	=16||-	=16||-
*lig	*	*	*	*	*
1F	Ki-	1F	Kÿ-	1f	Ki-
1C	.	1c	.	2e\	-ri-
.	.	.	.	1g\	-e
*Xlig	*	*	*	*	*
=17-	=17-	=17-	=17-	=17-	=17-
2c\	-ri-	1c	-ri-	.	.
2A/	.	.	.	2f\	.
*	*	*lig	*	*	*
1G	-e	1d	-e	2g\	.
.	.	.	.	1G/	.
=18-	=18-	=18-	=18-	=18-	=18-
2E/	.	1c	.	.	.
2F/	.	.	.	1c	.
*	*	*Xlig	*	*	*
1D	.	1f	.	.	.
.	.	.	.	2B-/	.
=19-	=19-	=19-	=19-	=19-	=19-
2C/	.	1e	.	1c	.
1c	.	.	.	.	.
.	.	1d	.	1d	.
2B-\	.	.	.	.	.
=20-	=20-	=20-	=20-	=20-	=20-
2c\	.	1c	.	1e	.
!LO:SIC:v:t=custos G	!	!	!	!	!
2C/	.	.	.	.	.
!LO:LB:g=original	!	!	!	!	!
1G	.	1B-	.	1g	.
=21-	=21-	=21-	=21-	=21-	=21-
!	!	!	!	!LO:SIC:v:t=custos f	!
2C/	.	1c	.	2e\	.
!	!	!	!	!LO:PB:g=original	!
2F/	.	.	.	1f	.
*	*	*lig	*	*	*
2D/	.	1d	.	.	.
2BB-/	.	.	.	2f\	.
=22-	=22-	=22-	=22-	=22-	=22-
1C	.	1c	.	1e	.
1D	.	1A	.	1d	.
*	*	*Xlig	*	*	*
=23-	=23-	=23-	=23-	=23-	=23-
1BB-	.	1B-	.	1d	.
.	.	.	.	.	.
1F	.	1A	.	2c/	.
.	.	.	.	1f\	.
=24-	=24-	=24-	=24-	=24-	=24-
1C	.	1G	.	.	.
.	.	.	.	2e/	e-
1D	.	1F	.	1d	-le-
=25-	=25-	=25-	=25-	=25-	=25-
1BB-	.	1D	le-	1d	-ÿ-
1C	ley-	1E	-y-	1c	-ſon
=26-	=26-	=26-	=26-	=26-	=26-
1F;;	-ӡon	1F;	-ſon	1c;;	.
1F	Ki-	1F	kÿ-	1f	ki-
!	!	!LO:PB:g=original	!	!	!
=27-	=27-	=27-	=27-	=27-	=27-
!LO:SIC:v:t=custos c	!	!	!	!	!
1C	.	1c	.	2e/	-ri-
.	.	.	.	1g	-e
!LO:PB:g=original	!	!	!	!	!
2c\	ri-	1c	-ri-	.	.
!	!	!	!	!LO:SIC:v:t=custos g	!
2A/	.	.	.	2f\	.
=28-	=28-	=28-	=28-	=28-	=28-
*	*	*lig	*	*	*
!	!	!	!	!LO:LB:g=original	!
1G	-e	1d	-e	2g\	.
.	.	.	.	1G	.
2E/	.	1c	.	.	.
2F/	.	.	.	1c\	.
*	*	*Xlig	*	*	*
=29-	=29-	=29-	=29-	=29-	=29-
1D	.	1f	.	.	.
.	.	.	.	2B-/	.
2C/	.	1e	vl-	1c	.
1c\	.	.	.	.	.
=30-	=30-	=30-	=30-	=30-	=30-
.	.	1d	-ti-	1d	.
2B-\	.	.	.	.	.
1c	.	1c	-mu(m)	1e	.
=31-	=31-	=31-	=31-	=31-	=31-
1G	.	1B-	.	1g	.
2C/	.	1c	.	2e\	.
2F/	.	.	.	1f\	.
=32-	=32-	=32-	=32-	=32-	=32-
*	*	*lig	*	*	*
2D/	.	1d	.	.	.
2BB-/	.	.	.	2f\	.
1C	.	1c	.	1e	.
=33-	=33-	=33-	=33-	=33-	=33-
1D	.	1A	.	1d	.
*	*	*Xlig	*	*	*
2C/	.	1c	.	2e\	.
!LO:SIC:v:t=custos A	!	!	!	!	!
2c\	.	.	.	1g\	.
=34-	=34-	=34-	=34-	=34-	=34-
!LO:LB:g=original	!	!	!	!	!
2A\	.	1c	.	.	.
2F/	.	.	.	1f	.
1G	.	1B-	.	.	.
!	!	!	!	!LO:SIC:v:t=custos f	!
.	.	.	.	2e\	.
=35-	=35-	=35-	=35-	=35-	=35-
!	!	!	!	!LO:LB:g=original	!
2F/	.	1c	.	2f\	.
2A\	.	.	.	2e\	.
*	*	*lig	*	*	*
1G	.	1d	.	1g	.
=36-	=36-	=36-	=36-	=36-	=36-
1C	.	1c	.	1e	.
1D	.	1A	.	1f	.
*	*	*Xlig	*	*	*
=37-	=37-	=37-	=37-	=37-	=37-
1BB-	.	1B-	.	1d	.
1F	.	1A	.	2c/	.
.	.	.	.	1f\	.
=38-	=38-	=38-	=38-	=38-	=38-
1C	.	1G	.	.	.
.	.	.	.	2e\	e-
1D	.	1F	.	1d	-le-
=39-	=39-	=39-	=39-	=39-	=39-
1BB-	ley-	1D	le-	1d	-ÿ-
1C	-ӡon	1E	-i-	1c	-ſon
=40-	=40-	=40-	=40-	=40-	=40-
1FF;;	.	1F	-ſon	1c;;	.
=-	=-	=-	=-	=-	=-
*-	*-	*-	*-	*-	*-
!!!system-decoration: [(s1,s2,s3)]
!!!AIN: 1 bass 1 tenor 1 vox
!!!ENC: Filip Voros
!!!END: 2021-12-28
!!!ENC: Marta Chmielewska
!!!END: 2021-12-31
